icons/linear-new-symbol-stack.svg

<svg xmlns="http://www.w3.org/2000/svg" width="32px" height="32px" viewBox="0 0 32 32" version="1.1">
    <title>linear-new-symbol-stack</title>
    <g id="linear-new-symbol-stack" stroke-width="1" fill-rule="evenodd">
        <path d="M28.8637789,21.496129 C29.1420592,21.9731809 28.9809229,22.5854986 28.503871,22.8637789 L16.503871,29.8637789 C16.1925085,30.045407 15.8074915,30.045407 15.496129,29.8637789 L3.49612897,22.8637789 C3.01907706,22.5854986 2.85794082,21.9731809 3.1362211,21.496129 C3.41450138,21.0190771 4.02681911,20.8579408 4.50387103,21.1362211 L16,27.842 L27.496129,21.1362211 C27.9731809,20.8579408 28.5854986,21.0190771 28.8637789,21.496129 Z M28.8637789,15.496129 C29.1420592,15.9731809 28.9809229,16.5854986 28.503871,16.8637789 L16.503871,23.8637789 C16.1925085,24.045407 15.8074915,24.045407 15.496129,23.8637789 L3.49612897,16.8637789 C3.01907706,16.5854986 2.85794082,15.9731809 3.1362211,15.496129 C3.41450138,15.0190771 4.02681911,14.8579408 4.50387103,15.1362211 L16,21.842 L27.496129,15.1362211 C27.9731809,14.8579408 28.5854986,15.0190771 28.8637789,15.496129 Z M16.503871,2.1362211 L28.503871,9.1362211 C29.1653763,9.52209919 29.1653763,10.4779008 28.503871,10.8637789 L16.503871,17.8637789 C16.1925085,18.045407 15.8074915,18.045407 15.496129,17.8637789 L3.49612897,10.8637789 C2.83462368,10.4779008 2.83462368,9.52209919 3.49612897,9.1362211 L15.496129,2.1362211 C15.8074915,1.95459297 16.1925085,1.95459297 16.503871,2.1362211 Z M16,4.157 L5.983,9.999 L16,15.842 L26.016,10 L16,4.157 Z" id="&#24418;&#29366;" fill-rule="nonzero" />
    </g>
</svg>

<svg xmlns="http://www.w3.org/2000/svg" viewBox="0 0 32 32"><path fill="currentColor" d="M28.864 21.496a1 1 0 0 1-.36 1.368l-12 7a1 1 0 0 1-1.008 0l-12-7a1 1 0 1 1 1.008-1.728L16 27.842l11.496-6.706a1 1 0 0 1 1.368.36m0-6a1 1 0 0 1-.36 1.368l-12 7a1 1 0 0 1-1.008 0l-12-7a1 1 0 1 1 1.008-1.728L16 21.842l11.496-6.706a1 1 0 0 1 1.368.36m-12.36-13.36 12 7a1 1 0 0 1 0 1.728l-12 7a1 1 0 0 1-1.008 0l-12-7a1 1 0 0 1 0-1.728l12-7a1 1 0 0 1 1.008 0M16 4.157 5.983 9.999 16 15.842 26.016 10z"/></svg>
